16x16/mimetypes/text-org.svg

<svg xmlns="http://www.w3.org/2000/svg" width="16" height="16" version="1.1">
 <path style="fill:#3b9a6a" d="M 2.8125,0 C 2.362375,0 2,0.3568 2,0.8 V 15.2 C 2,15.6432 2.362375,16 2.8125,16 h 11.375 C 14.637625,16 15,15.6432 15,15.2 V 5 L 10.9375,4 10,0 Z"/>
 <path style="fill:#61c391" d="M 15,5 10,0 V 4.1666667 C 10,4.6283333 10.371667,5 10.833333,5 Z"/>
 <path style="fill:#f4f4f7" d="M 7.9589844 9.0273438 C 7.8229471 9.0220338 7.5507812 9.2756193 7.5507812 9.6542969 C 7.5507812 9.6982129 7.5454395 9.7373888 7.5390625 9.7753906 C 7.6324415 9.7649066 7.718627 9.7586965 7.7871094 9.7578125 C 8.2088846 9.7523525 8.1953125 9.9042969 8.1953125 9.9042969 C 8.1820685 9.9684839 8.1889194 10.001971 8.2246094 10.037109 C 8.4024933 10.182114 8.3848453 10.484375 8.3847656 10.484375 C 8.2957046 10.376538 8.2001582 10.286935 8.0898438 10.25 C 8.1179198 10.33183 8.1073698 10.407615 8.0898438 10.480469 C 7.9723121 10.353345 7.8390614 10.258583 7.6660156 10.236328 C 7.7442906 10.339948 7.7194205 10.449274 7.6953125 10.558594 C 7.6199715 10.391568 7.4925062 10.29967 7.3242188 10.263672 C 7.3394448 10.433821 7.2901429 10.525733 7.1914062 10.585938 C 7.2400282 10.547417 7.1942151 10.320002 7.1738281 10.230469 C 7.1697181 10.232169 7.1640312 10.234728 7.1601562 10.236328 C 7.1182692 10.270368 7.0906648 10.260166 7.0898438 10.259766 C 7.0897011 10.259605 7.0256502 10.200071 6.9648438 10.097656 C 6.9173707 10.028466 6.8755336 9.9550565 6.8847656 9.9140625 C 6.874528 9.8763865 6.8668888 9.8376495 6.8632812 9.7949219 C 6.8171251 9.4989759 6.4730541 9.0490284 6.3046875 9.6054688 C 6.0488463 10.202514 6.0265251 10.34202 5.9765625 10.632812 C 5.9648135 10.700893 5.9567218 10.75841 5.9492188 10.8125 C 5.9577187 11.099606 6.0426012 11.29459 6.109375 11.449219 C 6.156245 11.600628 6.233616 11.768289 6.3632812 11.939453 C 6.8019232 12.518617 6.921875 12.803184 6.921875 13.078125 C 6.982861 13.226722 6.6228717 12.508456 6.3828125 12.234375 C 6.5421384 12.540237 6.6867196 12.846635 6.7128906 13.148438 C 6.4438844 12.634554 6.2369441 12.419662 6.0644531 12.371094 C 6.1785745 12.698742 6.2728165 13.010952 6.2148438 13.197266 C 6.0552005 12.80621 5.8661839 12.601496 5.6660156 12.470703 C 5.5445977 12.754623 5.5314757 13.062128 5.7050781 13.412109 C 5.5350458 13.327699 5.3517083 13.163206 5.1425781 12.857422 C 5.2017401 13.096287 5.2572017 13.336137 5.4765625 13.580078 C 5.3177122 13.597798 5.1548238 13.553077 4.9882812 13.460938 C 5.1537929 13.89572 5.4716032 14.317785 5.9042969 14.728516 C 5.4677963 14.504801 5.0394739 14.226669 4.6289062 13.814453 C 4.6855313 14.11118 4.7939826 14.375306 5.0878906 14.521484 C 4.8517176 14.545694 4.614604 14.528376 4.3789062 14.414062 C 4.5753477 14.807225 4.9433152 15.111469 5.3554688 15.394531 C 4.9612384 15.282165 4.5695997 15.153713 4.21875 14.767578 C 4.199559 14.995042 4.266919 15.214247 4.4003906 15.425781 C 4.1890403 15.295456 4.0092648 15.127078 3.875 14.910156 C 3.8787843 15.301708 4.0289151 15.655529 4.2148438 16 L 9.0332031 16 C 8.7975608 15.800482 8.5496065 15.610717 8.2734375 15.453125 C 7.0637822 14.803294 7.823475 13.684334 7.9101562 13.289062 C 7.9101562 13.289062 8.8793801 13.956676 9.5820312 12.935547 C 10.216796 13.09656 10.641557 12.821033 11.1875 13.015625 C 11.519236 13.158756 12.914828 13.072275 12.396484 12.304688 C 12.319634 12.370128 12.432212 12.441612 12.357422 12.539062 C 12.335062 12.567092 12.291293 12.657053 12.146484 12.699219 C 11.983906 12.775039 11.717368 12.837338 11.40625 12.511719 C 11.181894 12.34891 11.018516 12.492099 10.892578 12.480469 C 10.971088 12.430099 11.191346 12.318359 11.546875 12.318359 C 11.747678 12.318359 11.854174 12.491328 11.988281 12.492188 C 12.078771 12.492748 12.343507 12.356848 12.396484 12.304688 C 12.722432 12.095182 12.756868 12.162731 12.919922 11.84375 C 13.007552 11.457068 12.808637 11.375337 12.748047 11.269531 C 12.731787 11.02356 12.523331 10.928525 12.273438 11.103516 C 11.700928 11.002239 11.138503 11.050294 10.861328 11.027344 C 10.253687 10.943552 9.7480469 10.626953 9.7480469 10.626953 C 9.8219604 10.530205 9.787067 10.321009 9.3125 10.306641 C 9.0518212 10.222152 8.7772916 10.060624 8.5761719 10.058594 C 8.3725931 10.058594 8.34375 9.8613281 8.34375 9.8613281 C 8.2163846 9.7933933 8.0331737 9.529954 8.0351562 9.125 C 8.0351562 9.061067 8.0043304 9.0291138 7.9589844 9.0273438 z M 7.7949219 10.900391 C 8.1662327 11.036808 8.6969752 11.033183 8.9316406 10.988281 C 8.9113406 11.001241 8.9626077 10.989293 8.8398438 11.033203 C 8.8059787 11.074513 8.8035689 11.026684 8.7949219 11.158203 C 8.7164089 11.235503 8.4568504 11.261137 8.2539062 11.199219 C 8.0293114 11.099969 8.0387732 11.044112 8.0214844 10.988281 C 7.9995144 10.975321 7.8260105 10.918351 7.7949219 10.900391 z M 11.423828 11.439453 C 11.483738 11.435753 11.549908 11.443834 11.619141 11.458984 C 11.804559 11.511844 11.746585 11.644497 11.703125 11.732422 C 11.766575 11.51261 11.562814 11.470243 11.263672 11.488281 C 11.310902 11.459121 11.363923 11.443153 11.423828 11.439453 z M 11.431641 11.53125 C 11.565033 11.53125 11.673828 11.601919 11.673828 11.689453 C 11.673828 11.776983 11.565033 11.847656 11.431641 11.847656 C 11.715001 11.760126 11.416947 11.484633 11.191406 11.689453 C 11.191406 11.601913 11.298248 11.53125 11.431641 11.53125 z M 3.5917969 15.306641 C 3.5800022 15.543895 3.6248642 15.774191 3.6933594 16 L 4.0546875 16 C 3.8778814 15.80106 3.7125372 15.585592 3.5917969 15.306641 z M 2.953125 15.660156 C 2.9147335 15.779504 2.9004788 15.892638 2.9042969 16 L 3.1953125 16 C 3.0845391 15.941685 2.9979149 15.838795 2.953125 15.660156 z M 3.2421875 15.669922 C 3.1819383 15.74897 3.1946555 15.867562 3.234375 16 L 3.4042969 16 C 3.3496846 15.906994 3.2946824 15.805513 3.2421875 15.669922 z"/>
 <path style="fill:#f4f4f7" d="m 9.9618139,7.0450063 c -0.0435,6.8e-4 -0.1067636,0.053423 -0.1601611,0.1717284 C 9.6707184,7.4510703 9.5027482,7.5533119 9.504255,7.7264283 9.564131,7.8247387 9.0582076,7.9690207 9.2180092,8.2771479 9.1047602,8.4148131 8.8385462,8.5917891 8.9331589,8.8028551 8.8850992,8.9063971 8.5455091,9.1490175 8.6919874,9.3784339 8.3724637,9.5882511 8.3915367,9.6388483 8.4590262,9.8307835 c -0.1709045,0.1077584 -0.049275,0.3225615 0.040421,0.4982555 0,0 -0.3204889,0.583498 0.2321938,0.203297 0.2862946,0.0066 0.1598517,-0.301667 0.1598517,-0.301667 C 9.0846024,10.178195 9.1141559,9.9306639 9.0380218,9.7848775 9.2843466,9.7914375 9.2452162,9.4164791 9.211194,9.2866219 9.4043049,9.2145487 9.4310049,8.9874823 9.3510642,8.8080407 9.5840653,8.7556451 9.5906104,8.4868827 9.5707045,8.2968215 9.8103676,8.2837015 9.7771787,7.8705675 9.7771787,7.7852979 9.9836919,7.6541915 9.9371219,7.4772279 9.9695579,7.2720963 c 0.0716,-0.1427508 0.04818,-0.22794 -0.0077,-0.22709 z m -0.349288,0.5304356 c -0.061303,0.1713984 0.04492,0.1507252 0.1737922,0.1488512 -0.058845,0.062078 -0.2320322,0.080863 -0.2320322,0.017692 0,-0.063171 0.05824,-0.1665424 0.05824,-0.1665432 z m -0.3378245,0.489562 c -0.061383,0.1714768 0.1380105,0.1958688 0.2668831,0.1939948 -0.058845,0.062078 -0.250356,0.063408 -0.2814439,-0.013116 -0.049883,-0.097451 0.01456,-0.1808788 0.014561,-0.1808788 z M 9.0259403,8.5690551 c -0.044173,0.1775672 0.1160161,0.2175216 0.2448883,0.2158036 -0.058845,0.062078 -0.2837672,0.050666 -0.2837672,-0.012504 -0.040129,-0.098076 0.038878,-0.203298 0.038878,-0.203298 z m -0.2439592,0.55926 c -0.044173,0.1776456 0.2151492,0.173446 0.3440215,0.171728 -0.058845,0.062078 -0.2417513,0.1214308 -0.3557934,0.05826 -0.09945,-0.1095548 0.011773,-0.2299876 0.011773,-0.2299876 z M 8.5435985,9.5751739 c -0.055276,0.1068996 0.2909717,0.2138652 0.4197639,0.2119912 -0.058843,0.062078 -0.3072708,0.1096876 -0.4213129,0.046516 -0.1233209,-0.1482072 0.00154,-0.2585072 0.00154,-0.2585072 z m 0.050954,0.5263171 c -0.044094,0.177646 0.096351,0.155071 0.2252234,0.153275 -0.058845,0.06208 -0.1229532,0.139884 -0.2369952,0.07671 -0.09945,-0.109555 0.011773,-0.229989 0.011773,-0.229989 z"/>
 <path style="opacity:0.5;fill:#f4f4f7" d="M 7.7871094 9.7578125 C 7.5953931 9.7602925 7.3143187 9.794259 6.9003906 9.890625 C 6.8153746 9.948409 7.0898437 10.259766 7.0898438 10.259766 C 7.0898438 10.259766 7.121993 10.275752 7.171875 10.226562 C 7.19194 10.314253 7.2404983 10.547051 7.1914062 10.585938 C 7.2901422 10.525737 7.3394454 10.431868 7.3242188 10.261719 C 7.4925061 10.297719 7.6199718 10.391568 7.6953125 10.558594 C 7.7194235 10.449274 7.7442906 10.339948 7.6660156 10.236328 C 7.8390614 10.258588 7.9723124 10.353345 8.0898438 10.480469 C 8.1073698 10.407619 8.1179198 10.331834 8.0898438 10.25 C 8.2001581 10.28694 8.295705 10.376538 8.3847656 10.484375 C 8.3848452 10.484375 8.4024965 10.182114 8.2246094 10.037109 C 8.1889204 10.001969 8.1820705 9.9684837 8.1953125 9.9042969 C 8.1953125 9.9042969 8.2088852 9.7523485 7.7871094 9.7578125 z M 6.0605469 10.103516 C 5.8528443 10.230172 5.7778758 10.62536 5.0234375 10.875 C 4.7687858 10.95925 4.4369558 11.027362 3.9960938 11.0625 C 3.4331666 11.107275 2.4900448 11.830058 2 12.703125 L 2 15.199219 C 2 15.642419 2.362375 16 2.8125 16 L 2.9042969 16 C 2.9004787 15.892638 2.9147333 15.779504 2.953125 15.660156 C 2.9979146 15.838795 3.0845392 15.941683 3.1953125 16 L 3.234375 16 C 3.1946555 15.867563 3.1819383 15.748971 3.2421875 15.669922 C 3.2946826 15.805513 3.3496845 15.906994 3.4042969 16 L 3.6933594 16 C 3.624864 15.774191 3.5800019 15.543895 3.5917969 15.306641 C 3.7125372 15.585592 3.8778814 15.80106 4.0546875 16 L 4.2148438 16 C 4.0289142 15.655529 3.8787807 15.301708 3.875 14.910156 C 4.0092648 15.127078 4.1870872 15.295456 4.3984375 15.425781 C 4.2649657 15.214246 4.199558 14.995042 4.21875 14.767578 C 4.5695997 15.153712 4.9612384 15.282166 5.3554688 15.394531 C 4.9433156 15.11147 4.5753476 14.807225 4.3789062 14.414062 C 4.614604 14.528381 4.8517172 14.545691 5.0878906 14.521484 C 4.7939822 14.375307 4.685531 14.111179 4.6289062 13.814453 C 5.0394739 14.226669 5.4677963 14.5048 5.9042969 14.728516 C 5.4716032 14.317784 5.1537929 13.895721 4.9882812 13.460938 C 5.1548238 13.553078 5.3177122 13.597803 5.4765625 13.580078 C 5.2572017 13.336137 5.2017403 13.096288 5.1425781 12.857422 C 5.3517083 13.163207 5.5350458 13.327698 5.7050781 13.412109 C 5.5314773 13.062127 5.5446001 12.754624 5.6660156 12.470703 C 5.8661844 12.601497 6.0552005 12.806212 6.2148438 13.197266 C 6.2728167 13.010953 6.1785736 12.698743 6.0644531 12.371094 C 6.236944 12.419664 6.4438844 12.634554 6.7128906 13.148438 C 6.6867196 12.846635 6.5421389 12.540238 6.3828125 12.234375 C 6.6228721 12.508456 6.9828612 13.226723 6.921875 13.078125 C 6.921875 12.803185 6.8019231 12.518616 6.3632812 11.939453 C 6.2336161 11.768288 6.1562448 11.600628 6.109375 11.449219 C 5.9982672 11.191926 5.8374588 10.823 6.0605469 10.103516 z"/>
</svg>

<svg xmlns="http://www.w3.org/2000/svg" width="16" height="16"><path style="fill:#3b9a6a" d="M2.813 0A.805.805 0 0 0 2 .8v14.4c0 .443.362.8.813.8h11.374c.45 0 .813-.357.813-.8V5l-4.063-1L10 0z"/><path style="fill:#61c391" d="m15 5-5-5v4.167c0 .461.372.833.833.833z"/><path style="fill:#f4f4f7" d="M7.959 9.027c-.136-.005-.408.249-.408.627a.714.714 0 0 1-.012.121c.093-.01.18-.016.248-.017.422-.006.408.146.408.146-.013.064-.006.098.03.133.177.145.16.447.16.447-.09-.107-.185-.197-.295-.234a.396.396 0 0 1 0 .23c-.118-.127-.25-.221-.424-.244.078.104.053.213.03.323a.497.497 0 0 0-.372-.295c.015.17-.034.262-.133.322.049-.039.003-.266-.017-.356l-.014.006c-.042.034-.07.024-.07.024s-.064-.06-.125-.162c-.048-.07-.09-.143-.08-.184a.66.66 0 0 1-.022-.12c-.046-.295-.39-.745-.558-.189-.256.598-.278.737-.328 1.028-.012.068-.02.125-.028.18.009.287.094.482.16.636.047.152.125.32.254.49.439.58.559.864.559 1.14.06.148-.3-.57-.54-.845.16.306.305.613.33.914-.268-.513-.475-.728-.648-.777.115.328.209.64.15.826-.159-.39-.348-.596-.548-.726-.121.284-.135.591.04.941-.171-.084-.354-.249-.563-.555.059.24.114.48.334.723a.82.82 0 0 1-.489-.12c.166.436.484.858.916 1.269a4.899 4.899 0 0 1-1.275-.915c.057.297.165.561.459.707a1.276 1.276 0 0 1-.71-.107c.197.393.565.697.977.98-.394-.112-.785-.24-1.136-.626-.02.227.048.446.181.658a1.582 1.582 0 0 1-.525-.516c.004.392.154.746.34 1.09h4.818c-.235-.2-.483-.39-.76-.547-1.21-.65-.45-1.769-.363-2.164 0 0 .97.668 1.672-.353.635.16 1.06-.115 1.605.08.332.143 1.728.056 1.21-.711-.077.065.035.137-.04.234-.022.028-.066.118-.21.16-.163.076-.43.138-.74-.187-.225-.163-.388-.02-.514-.032.078-.05.298-.162.654-.162.2 0 .307.173.441.174.09 0 .356-.135.408-.187.326-.21.36-.142.524-.461.088-.387-.111-.469-.172-.574-.016-.246-.225-.341-.475-.166-.572-.102-1.134-.054-1.412-.077-.607-.083-1.113-.4-1.113-.4.074-.097.04-.306-.435-.32-.261-.085-.536-.246-.737-.248-.203 0-.232-.198-.232-.198-.128-.068-.31-.331-.309-.736 0-.064-.03-.096-.076-.098zM7.795 10.9c.371.137.902.133 1.137.088-.02.013.03.001-.092.045-.034.042-.036-.006-.045.125-.079.078-.338.103-.541.041-.225-.099-.215-.155-.233-.21-.021-.014-.195-.07-.226-.089zm3.629.54a.722.722 0 0 1 .195.019c.186.053.128.185.084.273.064-.22-.14-.262-.44-.244.048-.029.1-.045.16-.049zm.008.091c.133 0 .242.07.242.158s-.109.159-.242.159c.283-.088-.015-.363-.24-.159 0-.087.106-.158.24-.158zm-7.84 3.776c-.012.237.033.467.101.693h.362a2.559 2.559 0 0 1-.463-.693zm-.639.353a.986.986 0 0 0-.049.34h.291c-.11-.058-.197-.161-.242-.34zm.29.01c-.061.079-.048.198-.009.33h.17a2.172 2.172 0 0 1-.162-.33z"/><path style="fill:#f4f4f7" d="M9.962 7.045c-.044 0-.107.053-.16.172-.131.234-.3.336-.298.51.06.098-.446.242-.286.55-.113.138-.38.315-.285.526-.048.103-.387.346-.241.575-.32.21-.3.26-.233.453-.17.108-.05.322.04.498 0 0-.32.584.233.203.286.007.16-.301.16-.301.193-.053.222-.3.146-.446.246.006.207-.369.173-.498.193-.072.22-.3.14-.479.233-.052.24-.321.22-.511.24-.013.206-.426.206-.512.207-.13.16-.308.193-.513.071-.143.048-.228-.008-.227zm-.35.53c-.06.172.045.151.174.15-.059.061-.232.08-.232.017s.059-.167.059-.167zm-.337.49c-.062.171.138.196.267.194-.06.062-.25.063-.282-.013a.177.177 0 0 1 .015-.181zm-.25.504c-.043.178.117.218.246.216-.059.062-.284.05-.284-.013-.04-.098.039-.203.039-.203zm-.243.56c-.044.177.215.173.344.171-.059.062-.242.121-.356.058-.1-.11.012-.23.012-.23zm-.238.446c-.056.107.29.214.42.212-.06.062-.308.11-.422.047-.123-.149.002-.259.002-.259zm.05.526c-.044.178.097.156.226.154-.06.062-.123.14-.237.076-.1-.11.012-.23.012-.23z"/><path style="opacity:.5;fill:#f4f4f7" d="M7.787 9.758c-.192.002-.473.036-.887.133-.085.057.19.369.19.369s.032.016.082-.033c.02.087.068.32.02.359.098-.06.147-.154.132-.324a.5.5 0 0 1 .371.297c.024-.11.05-.22-.029-.323.173.023.306.117.424.244a.396.396 0 0 0 0-.23c.11.037.206.127.295.234 0 0 .017-.302-.16-.447-.036-.035-.043-.069-.03-.133 0 0 .014-.152-.408-.146zm-1.726.346c-.208.126-.283.521-1.038.771a4.393 4.393 0 0 1-1.027.188c-.563.044-1.506.767-1.996 1.64V15.2c0 .443.362.801.813.801h.091a.986.986 0 0 1 .05-.34c.044.179.13.282.241.34h.04c-.04-.132-.053-.251.007-.33.053.136.108.237.162.33h.29a2.034 2.034 0 0 1-.102-.693c.12.279.286.494.463.693h.16c-.186-.344-.336-.698-.34-1.09.134.217.312.385.523.516a1.052 1.052 0 0 1-.18-.658c.352.386.743.514 1.137.627-.412-.284-.78-.588-.976-.98.236.113.473.13.709.106-.294-.146-.402-.41-.46-.707.411.413.84.69 1.276.915-.432-.411-.75-.833-.916-1.268a.82.82 0 0 0 .489.12c-.22-.245-.275-.485-.334-.724.209.306.392.47.562.555-.174-.35-.16-.657-.039-.941.2.13.39.335.549.726.058-.186-.036-.498-.15-.826.172.049.379.264.648.777-.026-.301-.17-.608-.33-.914.24.274.6.993.539.844 0-.275-.12-.56-.559-1.139a1.58 1.58 0 0 1-.254-.49c-.11-.257-.272-.626-.048-1.345z"/></svg>
